X:622
T: ERSTANDEN IST DER HEILIG CHRIST
N: E1975
O: Europa, Mitteleuropa, Deutschland
R: geistlich, Fest - Lied, Ostern
M: 3/4
L: 1/4
K: F
f | f2f | e2e | fd2 | c2
c | d2f | e2d | c2B | A2
A | A2A | c2c | A2G | F2
B | A2d | c2G | AG2 | F2

